!!!COM: Felix Mendelssohn
!!!CNT: Deutsch
!!!TXO: Deutsch
!!!OTL: Minnelied
!!!LYR: Tieck
!!!OPS: Op. 47
!!!ONM: No. 1
!!!ENC: Daniel Alt & Leigh VanHandel
!!!YOR: Sa2mmtliche Lieder fu2r eine Singstimme
!!!YOR: Neu revidirt von Dr. L. Benda, Ausgabe fu2r mittlere Stimme
!!!YOR: Braunschweig. Henry Litolff's Verlag. Boston and New York: Arthur P. Schmidt.
!!!ODT: 1835/
**kern	**silbe
*staff1	*
=1-	=1
*clefG2	*
*k[f#]	*
*M2/4	*
2r	.
=2	=2
2r	.
=3	=3
2r	.
=4	=4
4r	.
{8b	{Wie
8dd	der
=5	=5
8.dd	Quell
16g	so
8f#	lieb
8g	lich
=6	=6
8b	kling-
8a	-et
8g	und
8f#	die
=7	=7
8.e	zar-
16d	-ten
8e	Blum-
8d	-en
=8	=8
4g}	ku2sst,}
{8b	{wie
8dd	der
=9	=9
8.dd	Fink
16g	im
8f#	Schat-
8g	-ten
=10	=10
8b	sin-
8a	-get
8g	und
8f#	das
=11	=11
8.e	na-
16f#	-he
8g	Lieb-
8a	-chen
=12	=12
[2b	gru2sst!
=13	=13
4b_	|
8b]}	|}
8r	.
=14	=14
4r	.
{8f#	{Wie
8f#	die
=15	=15
8.f#	Lich-
16f#	-ter
8g#	zitt-
8f#	-ernd
=16	=16
8b	schwei-
8f#	-fen
8f#	und
8f#	das
=17	=17
8.f#	Gras
16f#	sich
8g#	gru2n
8f#	er-
=18	=18
4b}	-freut,}
{8g	{wie
8f#	die
=19	=19
8a	Tan-
8g	-nen
8b	weith-
8a	-in
=20	=20
8cc	grei-
8b	-fen
8dd	und
16b	|
16g	die
=21	=21
4f#	Lin-
4e}	-de,
=22	=22
4r	.
{8ee	{und
16cc	|
16a	die
=23	=23
8g	Lin-
8f#	-de
8.cc	Blu2-
16f#	-then
=24	=24
4g}	streut!}
4r	.
=25	=25
2r	.
=26	=26
2r	.
=27	=27
2r	.
=28	=28
4r	.
{8b	{In
8dd	der
=29	=29
8.dd	Lin-
16g	-de
8f#	su2ss
8g	Ge-
=30	=30
8b	-du2f-
8a	-te,
8g	in
8f#	der
=31	=31
8.e	Tan-
16d	-nen
8e	Ries-
8d	-el-
=32	=32
4g}	-laut,}
{8b	{in
8dd	dem
=33	=33
8.dd	Spiel
16g	der
8f#	Som-
8g	-mer-
=34	=34
8b	-lu2f-
8a	-te
8g	gla2n-
8f#	-zet
=35	=35
8.e	sie
16f#	als
8g	Fru2h-
8a	-lings
=36	=36
[2b	braut.
=37	=37
4.b]}	|}
8r	.
=38	=38
4r	.
{8f#	{A-
8f#	-ber
=39	=39
8.f#	Wald-
16f#	-ton,
8g#	Vog-
8f#	-el-
=40	=40
8b	-sing-
8f#	-en,
8f#	Duft
8f#	der
=41	=41
8.f#	Blu2-
16f#	-then,
8g#	halt-
8f#	-et
=42	=42
4b}	ein,}
{8g	{Licht,
8f#	ver-
=43	=43
8a	dunk-
8g	-le,
8b	nie
8a	ge-
=44	=44
8cc	ling-
8b	-en
8dd	kann
16b	|
16g	es
=45	=45
4f#	euch,
4e}	|}
=46	=46
4r	.
{8ee	{kann
16cc	|
16a	es
=47	=47
8g	euch,
8f#	ihr
8.cc	gleich
16f#	zu
=48	=48
8g	sein!
8r	.
8dd	Nie
16b	|
16g	ge-
=49	=49
4f#	-lin-
4e}	-gen}
=50	=50
4r	.
{8ee	{kann
16cc	|
16a	es
=51	=51
8g	euch,
8f#	ihr
8.cc	gleich
16f#	zu
=52	=52
4g}	sein!}
4r	.
==	==
*-	*-
